svgs/lawnicons.svg

<svg width="192" height="192" viewBox="0 0 192 192" fill="none" xmlns="http://www.w3.org/2000/svg">
<path d="M57 84C71.9117 84 84 71.9117 84 57C84 42.0883 71.9117 30 57 30C42.0883 30 30 42.0883 30 57C30 71.9117 42.0883 84 57 84Z" stroke="black" stroke-width="12" stroke-miterlimit="10"/>
<path d="M135 162C149.912 162 162 149.912 162 135C162 120.088 149.912 108 135 108C120.088 108 108 120.088 108 135C108 149.912 120.088 162 135 162Z" stroke="black" stroke-width="12" stroke-miterlimit="10"/>
<path d="M30 108.06H84.0984V162H30V108.06ZM134.951 34L107.902 80.7139H162L134.951 34Z" stroke="black" stroke-width="12" stroke-linejoin="round"/>
</svg>

<svg width="192" height="192" viewBox="0 0 192 192" fill="none" xmlns="http://www.w3.org/2000/svg"><path d="M57 84c14.912 0 27-12.088 27-27S71.912 30 57 30 30 42.088 30 57s12.088 27 27 27ZM135 162c14.912 0 27-12.088 27-27s-12.088-27-27-27-27 12.088-27 27 12.088 27 27 27Z" stroke="#000" stroke-width="12" stroke-miterlimit="10"/><path d="M30 108.06h54.098V162H30v-53.94ZM134.951 34l-27.049 46.714H162L134.951 34Z" stroke="#000" stroke-width="12" stroke-linejoin="round"/></svg>
